static/pictos/picto-dribble.svg

<svg xmlns="http://www.w3.org/2000/svg" fill="#fff" viewBox="0 0 32 32" enable-background="new 0 0 32 32"><style type="text/css">.st0{fill:#010002;}</style><path d="M16 2C8.3 2 2 8.3 2 16s6.3 14 14 14 14-6.3 14-14S23.7 2 16 2zm9.1 6.6c1.6 1.9 2.5 4.4 2.6 7-2.9-.6-5.5-.5-7.9-.1-.4-1-.9-1.9-1.3-2.8 2.6-1 4.8-2.4 6.6-4.1zM23.5 7c-1.8 1.6-3.9 2.9-6 3.8-1.6-2.9-3.1-5-4-6.2.8-.2 1.6-.3 2.4-.3 3-.1 5.6 1 7.6 2.7zM11.3 5.2c.7.9 2.3 3.1 4.1 6.3-4.4 1.4-8.7 1.7-10.8 1.7.8-3.5 3.4-6.5 6.7-8zm-7 10.3c1.5 0 4.1-.1 7.2-.7 1.8-.3 3.4-.8 5-1.3.4.8.8 1.7 1.2 2.6-2.2.7-4 1.7-5.5 2.7C9.7 20.6 8 22.4 7 23.6c-1.7-2-2.8-4.7-2.8-7.6 0-.2.1-.3.1-.5zm4.4 9.7c.8-1 2.5-2.9 4.8-4.5 1.6-1.1 3.3-1.9 5-2.5 1 2.6 1.9 5.5 2.4 8.5-1.5.7-3.1 1.1-4.9 1.1-2.8 0-5.3-1-7.3-2.6zm14.2.3c-.5-2.8-1.3-5.4-2.2-7.8 2.2-.4 4.5-.3 6.9.2-.5 3.1-2.2 5.8-4.7 7.6z"/></svg>

<?xml version="1.0" encoding="utf-8"?>
<!-- Generator: Adobe Illustrator 18.0.0, SVG Export Plug-In . SVG Version: 6.00 Build 0)  -->
<!DOCTYPE svg PUBLIC "-//W3C//DTD SVG 1.1//EN" "http://www.w3.org/Graphics/SVG/1.1/DTD/svg11.dtd">
<svg version="1.1" id="Calque_1" xmlns="http://www.w3.org/2000/svg" xmlns:xlink="http://www.w3.org/1999/xlink" x="0px" y="0px"
	 viewBox="0 0 32 32" style="enable-background:new 0 0 32 32;fill:white;" xml:space="preserve">
<style type="text/css">
	.st0{fill:#010002;}
</style>
<path d="M16,2C8.3,2,2,8.3,2,16s6.3,14,14,14s14-6.3,14-14S23.7,2,16,2z M25.1,8.6c1.6,1.9,2.5,4.4,2.6,7c-2.9-0.6-5.5-0.5-7.9-0.1
	c-0.4-1-0.9-1.9-1.3-2.8C21.1,11.7,23.3,10.3,25.1,8.6z M23.5,7c-1.8,1.6-3.9,2.9-6,3.8c-1.6-2.9-3.1-5-4-6.2
	c0.8-0.2,1.6-0.3,2.4-0.3C18.9,4.2,21.5,5.3,23.5,7z M11.3,5.2c0.7,0.9,2.3,3.1,4.1,6.3c-4.4,1.4-8.7,1.7-10.8,1.7
	C5.4,9.7,8,6.7,11.3,5.2z M4.3,15.5C4.3,15.5,4.3,15.5,4.3,15.5c1.5,0,4.1-0.1,7.2-0.7c1.8-0.3,3.4-0.8,5-1.3
	c0.4,0.8,0.8,1.7,1.2,2.6c-2.2,0.7-4,1.7-5.5,2.7C9.7,20.6,8,22.4,7,23.6c-1.7-2-2.8-4.7-2.8-7.6C4.2,15.8,4.3,15.7,4.3,15.5z
	 M8.7,25.2c0.8-1,2.5-2.9,4.8-4.5c1.6-1.1,3.3-1.9,5-2.5c1,2.6,1.9,5.5,2.4,8.5c-1.5,0.7-3.1,1.1-4.9,1.1
	C13.2,27.8,10.7,26.8,8.7,25.2z M22.9,25.5c-0.5-2.8-1.3-5.4-2.2-7.8c2.2-0.4,4.5-0.3,6.9,0.2C27.1,21,25.4,23.7,22.9,25.5z"/>
</svg>
